X: 1
T: Affections Touching across Time
C: Kaoru Wada
K: Bb
L: 1/8
Q: 1/4=66
V:1 clef="treble"
V:2 clef="bass" middle="D"
V:1
[M: 5/4] "Gm" z/2d/2g/2d'/2 !fermata!c'2 a2 f2 z2 | z/2D/2G/2d/2 !fermata!c2 A2 F2 z2 || [M: 4/4] "Bb/F" z2 [Bb]2 [Aa]2 [Ff]2 |
!fermata![Dd]2 [B,B]2 [A,A]2 [F,F]2 | z8 || [M: 2/4] z2 [Q: 1/4=80] df || [M: 4/4]
"Eb" g2 gb "F" c'2 d'f' | "Gm" d'2 c'b g2 d'c' | "Eb" g2 d'c' "F" g2 f2 | "Gm" d4 z2 df |
V:2
[M: 5/4] g4> - g8 | G4> - G8 || [M: 4/4] z8 |
z8 | [Cc]4 [Dd]4 || [M: 2/4] z2 [Q: 1/4=80] z2 || [M: 4/4]
!arpeggio![egb]4 !arpeggio![fac']4 | !arpeggio![gbd']4 !arpeggio![dgb]4 | !arpeggio![egb]4 !arpeggio![fac']4 | Gdga b4 |
